React/src/assets/images/frontend/webpack.svg

<svg width="130" height="130" viewBox="0 0 130 130" fill="none" xmlns="http://www.w3.org/2000/svg">
<path d="M104.953 86.6017L63.1995 110.709L21.4457 86.6017V38.3885L63.1995 14.2816L104.953 38.3885V86.6017Z" fill="white" fill-opacity="0.78498"/>
<path d="M66.5492 10.7208C65.4117 10.7208 64.3266 11.0441 63.46 11.6941L20.6661 35.7414C18.9328 36.6623 17.7991 38.4544 17.7991 40.5128V89.2628C17.7991 91.3211 18.9328 93.1132 20.6661 94.0341L63.46 118.081C64.3266 118.731 65.4117 119.055 66.5492 119.055C67.6867 119.055 68.7717 118.731 69.6383 118.081L112.432 94.0341C114.166 93.1132 115.299 91.3211 115.299 89.2628V40.5128C115.299 38.4544 114.166 36.6623 112.432 35.7414L69.6383 11.6941C68.7717 11.0441 67.6867 10.7208 66.5492 10.7208V10.7208ZM66.5492 22.3688L104.466 43.7078V55.1017H104.381V83.1476H104.466V86.0675L66.5492 107.406L28.6325 86.0675V43.7076L66.5492 22.3686V22.3688ZM66.5492 33.636L40.0053 48.9657L66.5492 64.2954L93.093 48.9657L66.5492 33.636V33.636ZM39.4658 61.1532V80.5454L61.1325 93.0504V73.6582L39.4658 61.1532ZM93.6325 61.1532L71.9658 73.6582V93.0504L93.6325 80.5454V61.1532Z" fill="#8ED6FB"/>
<path d="M66.5492 33.636L40.0054 48.9657L66.5492 64.2954L93.093 48.9657L66.5492 33.636V33.636ZM39.4659 61.1532V80.5454L61.1325 93.0503V73.6581L39.4659 61.1532ZM93.6325 61.1532L71.9659 73.6581V93.0503L93.6325 80.5454V61.1532Z" fill="#1C78C0"/>
</svg>

<svg width="130" height="130" fill="none" xmlns="http://www.w3.org/2000/svg"><path d="M104.953 86.602l-41.754 24.107-41.753-24.107V38.388L63.2 14.282l41.753 24.107v48.213z" fill="#fff" fill-opacity=".785"/><path d="M66.55 10.72c-1.138 0-2.223.324-3.09.974L20.666 35.741a5.374 5.374 0 00-2.867 4.772v48.75a5.374 5.374 0 002.867 4.771l42.794 24.047c.867.65 1.952.974 3.09.974 1.137 0 2.222-.324 3.088-.974l42.794-24.047a5.372 5.372 0 002.867-4.771v-48.75a5.372 5.372 0 00-2.867-4.772L69.638 11.694c-.866-.65-1.951-.973-3.089-.973zm0 11.649l37.916 21.339v11.394h-.085v28.046h.085v2.92l-37.917 21.338-37.917-21.339v-42.36L66.55 22.37zm0 11.267l-26.545 15.33 26.544 15.33 26.544-15.33-26.544-15.33zM39.465 61.153v19.392L61.132 93.05V73.658L39.466 61.153zm54.166 0L71.966 73.658V93.05l21.666-12.505V61.153z" fill="#8ED6FB"/><path d="M66.55 33.636l-26.545 15.33 26.544 15.33 26.544-15.33-26.544-15.33zM39.465 61.153v19.392L61.132 93.05V73.658L39.466 61.153zm54.166 0L71.966 73.658V93.05l21.666-12.505V61.153z" fill="#1C78C0"/></svg>
